X:1
T:Ahmedabad, 87.87.88.87
T:Ahmedabad, 87.87.88.87
T:Maro Lummis Bartlett, 1888
T:Public Domain Courtesy of the Cyber Hymnal™
C:Maro Lummis Bartlett, 1888
Z:Public Domain
Z:Courtesy of the Cyber Hymnal™
%%score ( 1 2 ) ( 3 4 )
L:1/8
Q:1/4=104
M:6/8
K:A
V:1 treble 
V:2 treble 
V:3 bass 
V:4 bass 
V:1
 [CE]2 [CE] ([CA][DB])[Ec] | [DF]2 [DF] [FB]2 [FB] | [EG]2 [EG] (GF)[EG] | [EA]2 [EB] [Ac]2 z | %4
 [CE]2 [CE] ([CA][DB])[Ec] | [DF]2 [DF] [FB]2 [FB] | [EG]2 [EG] (GF)[EG] | %7
 [EA]2 [FA] !fermata![DA]3 | [Ec][Ec][Ec] [Ec][CA][DB] | [Ec]3 [CA]2 [EA] | %10
 [GB][GB][GB] [GB]<[Ge][Gd] | [Ac]3- [Ac]2 z | [Ac][Ac][Ac] [Ac]A[AB] | [Ac]3 [EA]3 | %14
 F2 [EF] [^DB]2 [FA] | [EA]3 [EG]3 | [EA]6- | [EA]2 z4 |] %18
V:2
 x6 | x6 | x3 E2 x | x6 | x6 | x6 | x3 E2 x | x6 | x6 | x6 | x6 | x6 | x4 A x | x6 | F2 x4 | x6 | %16
 x6 | x6 |] %18
V:3
 [A,,A,]2 [A,,A,] [A,,A,]2 [A,,A,] | [D,A,]2 [D,A,] [B,,D]2 [B,,D] | [E,B,]2 [E,B,] (B,A,)[E,B,] | %3
 [A,C]2 [A,D] [A,E]2 z | [A,,A,]2 [A,,A,] [A,,A,]2 [A,,A,] | [D,A,]2 [D,A,] [B,,D]2 [B,,D] | %6
 [E,B,]2 [E,B,] (B,A,)[E,B,] | [A,,C]2 [A,,D] !fermata![A,,C]3 | %8
 [A,,A,][A,,A,][A,,A,] [A,,A,][A,,A,][A,,A,] | [A,,A,]3 [A,,A,]2 [A,C] | %10
 [E,E][E,E][E,E] [E,E]<[E,B,][E,E] | [A,E]3- [A,E]2 z | [A,E][A,E][A,E] [A,E][A,C][A,D] | %13
 [A,E]3 [A,C]3 | [D,A,]2 [C,^A,] [B,,B,]2 [^D,B,] | [E,C]3 [E,B,]3 | [A,,C]6- | [A,,C]2 z4 |] %18
V:4
 x6 | x6 | x3 E,2 x | x6 | x6 | x6 | x3 E,2 x | x6 | x6 | x6 | x6 | x6 | x6 | x6 | x6 | x6 | x6 | %17
 x6 |] %18

